svg/miner_worker_positive.svg

<?xml version="1.0" encoding="UTF-8" standalone="no"?>
<!-- Created with Inkscape (http://www.inkscape.org/) -->
<svg id="svg8" xmlns:rdf="http://www.w3.org/1999/02/22-rdf-syntax-ns#" xmlns="http://www.w3.org/2000/svg" xmlns:osb="http://www.openswatchbook.org/uri/2009/osb" height="48" width="48" version="1.1" xmlns:cc="http://creativecommons.org/ns#" viewBox="0 0 12.7 12.7" xmlns:dc="http://purl.org/dc/elements/1.1/">
 <title id="title4753">UIO-icon</title>
 <metadata id="metadata5">
  <rdf:RDF>
   <cc:Work rdf:about="">
    <dc:format>image/svg+xml</dc:format>
    <dc:type rdf:resource="http://purl.org/dc/dcmitype/StillImage"/>
    <dc:title>UIO-icon</dc:title>
    <dc:creator>
     <cc:Agent>
      <dc:title>Joaquín Urbano</dc:title>
     </cc:Agent>
    </dc:creator>
    <dc:rights>
     <cc:Agent>
      <dc:title>GPL</dc:title>
     </cc:Agent>
    </dc:rights>
   </cc:Work>
  </rdf:RDF>
 </metadata>
 <g id="layer1" transform="translate(0,-284.3)" fill="#333">
  <path id="path1933" d="m23.502 4.9316c-3.1373 0.003707-6.0165 1.7381-7.4863 4.5098h4.7285c0.24474-1.331 1.4045-2.2977 2.7578-2.2988 1.354 0.00014135 2.5149 0.96711 2.7598 2.2988h4.722c-1.469-2.7704-4.346-4.5046-7.482-4.5098zm-8.135 6.0994c-0.22063 0.74607-0.33762 1.5189-0.34766 2.2969h16.963c-0.01067-0.77804-0.12831-1.5509-0.34961-2.2969h-5.541c-0.43638 1.0446-1.4577 1.7248-2.5898 1.7246-1.1307-0.001429-2.1501-0.68127-2.5859-1.7246zm-2.4062 2.6523v1.2363h3.5762v4.956c0 2.0844 0.5155 4.1544 1.9922 5.084 2.09 1.3157 3.1271 2.1809 4.9668 2.2383 1.2599 0.00378 2.871-1.135 4.6094-2.2227 1.5631-0.97807 2.3613-3.0259 2.3613-5.0996-0.011339-1.6517-0.030245-3.3034-0.046875-4.9551h3.623v-1.2363zm4.0898 1.2363 12.854 0.001953c0.01663 1.5564 0.03352 3.092 0.042969 4.6484 0 1.8753-0.63337 4.0318-2.0469 4.916-1.572 0.98366-3.2259 2.1971-4.3652 2.1934-1.6637-0.047622-2.9459-1.0229-4.8359-2.2129-1.336-0.84-1.666-2.987-1.661-4.872zm3.4414 1.0195c-0.43898 0.00011339-0.79482 0.356-0.79492 0.79492 0.00009828 0.43895 0.35596 0.79481 0.79492 0.79492 0.43898-0.00011339 0.79482-0.35604 0.79492-0.79492-0.00009828-0.43899-0.35596-0.79481-0.79492-0.79492zm5.9688 0c-0.43898 0.00011339-0.79483 0.356-0.79492 0.79492 0.0000945 0.43895 0.35592 0.79481 0.79492 0.79492 0.43898-0.00011339 0.79482-0.35604 0.79492-0.79492-0.00009828-0.43899-0.35596-0.79481-0.79492-0.79492zm-3.035 3.671c-0.37814 0.00378-0.67004 0.070579-0.66602 0.14844 0.001999 0.080882 0.32239 0.14686 0.7168 0.14648 0.39441 0.00003777 0.71477-0.065602 0.7168-0.14648 0.003201-0.082016-0.31865-0.14844-0.7168-0.14844-0.017008-0.00011339-0.034-0.00011339-0.050781 0zm2.9551 2.2617c-0.00007561 0.00041575-0.011341 0.001424-0.011719 0.001953 0.00011717 0.00037793 0.011719-0.00041575 0.011719 0zm-0.011719 0.001953c-0.015874-0.053669-1.2268 0.071172-2.7285 0.2832-0.064441 0.007559-0.12896 0.019785-0.19336 0.027344-1.4369 0.2075-2.5416 0.40995-2.5215 0.46094 0.026079 0.052158 1.2485-0.077409 2.7422-0.28906 1.4821-0.21014 2.6733-0.42369 2.7012-0.48242zm3.9434 5.5605c-1.5652 1.4702-4.7177 2.8115-6.8027 2.8438-2.5629-0.002872-5.0208-1.0188-6.8379-2.8262l-0.10938 0.029297c-0.87529 0.31559-1.7272 0.6743-2.582 1.0449v8.9727h-2.652v-7.8242c-0.97219 0.4165-1.9726 0.83023-3.0684 1.2109-2.5451 0.74956-2.5449 2.867-2.5449 4.0195v6.6621h5.6133v-1.791h2.6523v1.791h18.736v-1.791h2.6523v1.791h5.918v-6.6621c0-1.1525 0.00016284-3.2682-2.5449-4.0195-1.2109-0.42077-2.3081-0.88043-3.373-1.3418v7.9551h-2.651v-9.106c-0.795-0.341-1.588-0.669-2.405-0.959z" transform="matrix(.26458 0 0 .26458 0 284.3)"/>
 </g>
</svg>

<svg width="48" height="48" viewBox="0 0 48 48" fill="none" xmlns="http://www.w3.org/2000/svg">
<path d="M23.5018 4.93164C20.3645 4.93535 17.4854 6.66972 16.0156 9.44138H20.744C20.9888 8.1104 22.1485 7.14371 23.5018 7.14261C24.8558 7.14275 26.0167 8.10971 26.2616 9.44138H30.9835C29.5145 6.67102 26.6376 4.93684 23.5016 4.93164H23.5018ZM15.3669 11.031C15.1463 11.777 15.0293 12.5498 15.0193 13.3278H31.982C31.9714 12.5498 31.8537 11.777 31.6324 11.031H26.0915C25.6551 12.0756 24.6338 12.7557 23.5017 12.7555C22.3711 12.7541 21.3517 12.0743 20.9159 11.031H15.3669ZM12.9607 13.6832V14.9195H16.5369V19.8755C16.5369 21.9598 17.0524 24.0298 18.5291 24.9594C20.619 26.2751 21.6561 27.1403 23.4958 27.1977C24.7557 27.2014 26.3668 26.0627 28.1052 24.975C29.6682 23.9969 30.4664 21.9491 30.4664 19.8755C30.4551 18.2238 30.4362 16.5721 30.4195 14.9204H34.0425V13.6841L12.9607 13.6832ZM17.0505 14.9195L29.9043 14.9215C29.921 16.4778 29.9378 18.0134 29.9473 19.5698C29.9473 21.4451 29.3139 23.6016 27.9004 24.4857C26.3284 25.4694 24.6746 26.6828 23.5353 26.6791C21.8716 26.6315 20.5894 25.6562 18.6994 24.4662C17.3635 23.6263 17.0335 21.4793 17.0385 19.5943L17.0505 14.9195ZM20.4918 15.939C20.0529 15.9391 19.697 16.295 19.6969 16.7339C19.697 17.1729 20.0529 17.5287 20.4918 17.5288C20.9308 17.5287 21.2867 17.1728 21.2868 16.7339C21.2867 16.2949 20.9308 15.9391 20.4918 15.939ZM26.4606 15.939C26.0216 15.9391 25.6658 16.295 25.6657 16.7339C25.6658 17.1729 26.0216 17.5287 26.4606 17.5288C26.8995 17.5287 27.2554 17.1728 27.2555 16.7339C27.2554 16.2949 26.8995 15.9391 26.4606 15.939ZM23.4256 19.61C23.0475 19.6137 22.7556 19.6805 22.7596 19.7584C22.7616 19.8393 23.082 19.9053 23.4764 19.9049C23.8708 19.9049 24.1911 19.8393 24.1932 19.7584C24.1964 19.6764 23.8745 19.61 23.4764 19.61C23.4594 19.6098 23.4424 19.6098 23.4256 19.61ZM26.3807 21.8716C26.3806 21.872 26.3693 21.8731 26.369 21.8736C26.3691 21.874 26.3807 21.8732 26.3807 21.8736V21.8716ZM26.369 21.8736C26.3531 21.8199 25.1422 21.9448 23.6405 22.1568C23.576 22.1643 23.5115 22.1766 23.4471 22.1841C22.0102 22.3916 20.9056 22.5941 20.9257 22.6451C20.9517 22.6972 22.1741 22.5676 23.6678 22.356C25.1499 22.1459 26.3411 21.9323 26.369 21.8736ZM30.3123 27.434C28.7471 28.9042 25.5947 30.2455 23.5097 30.2778C20.9468 30.2749 18.489 29.259 16.6719 27.4516L16.5625 27.4809C15.6872 27.7965 14.8353 28.1552 13.9805 28.5258V37.4984H11.3286V29.6743C10.3564 30.0908 9.35599 30.5045 8.2602 30.8852C5.71513 31.6347 5.71533 33.7521 5.71533 34.9046V41.5666H11.3286V39.7757H13.9808V41.5666H32.7166V39.7757H35.3689V41.5666H41.2868V34.9046C41.2868 33.7521 41.287 31.6365 38.7419 30.8852C37.531 30.4644 36.4338 30.0047 35.369 29.5434V37.4984H32.718V28.3925C31.923 28.0515 31.13 27.7235 30.313 27.4335L30.3123 27.434Z" fill="#333333"/>
</svg>
